svgs/sharp-regular/circle-z.svg

<svg xmlns="http://www.w3.org/2000/svg" viewBox="0 0 512 512"><!--! Font Awesome Pro 6.6.0 by @fontawesome - https://fontawesome.com License - https://fontawesome.com/license (Commercial License) Copyright 2024 Fonticons, Inc. --><path d="M256 48a208 208 0 1 1 0 416 208 208 0 1 1 0-416zm0 464A256 256 0 1 0 256 0a256 256 0 1 0 0 512zm96-352.5l0-31.5-24 0-144 0-24 0 0 48 24 0 98.2 0L164.3 346.3l-4.3 6.2 0 31.5 24 0 144 0 24 0 0-48-24 0-98.2 0L347.7 165.7l4.3-6.2z"/></svg>

<svg xmlns="http://www.w3.org/2000/svg" viewBox="0 0 512 512"><!--! Font Awesome Pro 6.4.0 by @fontawesome - https://fontawesome.com License - https://fontawesome.com/license (Commercial License) Copyright 2023 Fonticons, Inc. --><path d="M256 48a208 208 0 1 1 0 416 208 208 0 1 1 0-416zm0 464A256 256 0 1 0 256 0a256 256 0 1 0 0 512zm96-352.5V128H328 184 160v48h24 98.2L164.3 346.3l-4.3 6.2V384h24H328h24V336H328 229.8L347.7 165.7l4.3-6.2z"/></svg>
